images/core-icon.svg

<svg xmlns="http://www.w3.org/2000/svg" xmlns:xlink="http://www.w3.org/1999/xlink" width="96" zoomAndPan="magnify" viewBox="0 0 72 83.249999" height="111" preserveAspectRatio="xMidYMid meet" version="1.0"><defs><clipPath id="f442ce8de9"><path d="M 0.761719 0 L 71 0 L 71 82.507812 L 0.761719 82.507812 Z M 0.761719 0 " clip-rule="nonzero"/></clipPath><clipPath id="5bdf5d774f"><path d="M 0.320312 0 L 70.933594 0 L 70.933594 82.507812 L 0.320312 82.507812 Z M 0.320312 0 " clip-rule="nonzero"/></clipPath></defs><g clip-path="url(#f442ce8de9)"><path fill="#012430" d="M 27.011719 8.957031 C 27.011719 8.371094 27.066406 7.792969 27.179688 7.222656 C 27.292969 6.648438 27.464844 6.09375 27.6875 5.554688 C 27.910156 5.015625 28.183594 4.5 28.507812 4.015625 C 28.832031 3.53125 29.203125 3.082031 29.613281 2.667969 C 30.027344 2.253906 30.476562 1.886719 30.960938 1.5625 C 31.449219 1.238281 31.960938 0.964844 32.5 0.742188 C 33.039062 0.515625 33.597656 0.347656 34.167969 0.234375 C 34.742188 0.121094 35.320312 0.0625 35.902344 0.0625 C 36.488281 0.0625 37.066406 0.121094 37.640625 0.234375 C 38.210938 0.347656 38.769531 0.515625 39.308594 0.742188 C 39.847656 0.964844 40.359375 1.238281 40.84375 1.5625 C 41.332031 1.886719 41.78125 2.253906 42.191406 2.667969 C 42.605469 3.082031 42.972656 3.53125 43.296875 4.015625 C 43.621094 4.5 43.898438 5.015625 44.121094 5.554688 C 44.34375 6.09375 44.511719 6.648438 44.625 7.222656 C 44.742188 7.792969 44.796875 8.371094 44.796875 8.957031 C 44.796875 9.539062 44.742188 10.121094 44.625 10.691406 C 44.511719 11.265625 44.34375 11.820312 44.121094 12.359375 C 43.898438 12.898438 43.621094 13.414062 43.296875 13.898438 C 42.972656 14.382812 42.605469 14.832031 42.191406 15.246094 C 41.78125 15.660156 41.332031 16.027344 40.84375 16.351562 C 40.359375 16.675781 39.847656 16.949219 39.308594 17.171875 C 38.769531 17.398438 38.210938 17.566406 37.640625 17.679688 C 37.066406 17.792969 36.488281 17.851562 35.902344 17.851562 C 35.320312 17.851562 34.742188 17.792969 34.167969 17.679688 C 33.597656 17.566406 33.039062 17.398438 32.5 17.171875 C 31.960938 16.949219 31.449219 16.675781 30.960938 16.351562 C 30.476562 16.027344 30.027344 15.660156 29.613281 15.246094 C 29.203125 14.832031 28.832031 14.382812 28.507812 13.898438 C 28.183594 13.414062 27.910156 12.898438 27.6875 12.359375 C 27.464844 11.820312 27.292969 11.265625 27.179688 10.691406 C 27.066406 10.121094 27.011719 9.539062 27.011719 8.957031 Z M 66.410156 22.25 L 5.398438 22.25 C 5.105469 22.25 4.820312 22.277344 4.53125 22.332031 C 4.246094 22.386719 3.96875 22.46875 3.699219 22.578125 C 3.429688 22.691406 3.175781 22.824219 2.933594 22.984375 C 2.6875 23.148438 2.464844 23.328125 2.257812 23.535156 C 2.050781 23.742188 1.867188 23.964844 1.707031 24.207031 C 1.542969 24.445312 1.40625 24.703125 1.292969 24.972656 C 1.183594 25.238281 1.097656 25.515625 1.039062 25.800781 C 0.984375 26.085938 0.957031 26.375 0.957031 26.667969 C 0.957031 26.957031 0.984375 27.246094 1.039062 27.53125 C 1.097656 27.816406 1.183594 28.09375 1.292969 28.363281 C 1.40625 28.632812 1.542969 28.886719 1.707031 29.128906 C 1.867188 29.371094 2.050781 29.59375 2.257812 29.796875 C 2.464844 30.003906 2.6875 30.1875 2.933594 30.347656 C 3.175781 30.507812 3.429688 30.644531 3.699219 30.753906 C 3.96875 30.863281 4.246094 30.945312 4.53125 31 C 4.820312 31.054688 5.105469 31.082031 5.398438 31.082031 L 25.097656 31.082031 L 25.097656 76.75 C 25.097656 77.101562 25.132812 77.453125 25.207031 77.800781 C 25.277344 78.144531 25.378906 78.480469 25.515625 78.808594 C 25.652344 79.132812 25.820312 79.445312 26.019531 79.738281 C 26.214844 80.03125 26.4375 80.300781 26.691406 80.550781 C 26.941406 80.800781 27.214844 81.023438 27.507812 81.21875 C 27.800781 81.414062 28.113281 81.578125 28.4375 81.714844 C 28.765625 81.847656 29.101562 81.949219 29.449219 82.019531 C 29.796875 82.089844 30.148438 82.121094 30.5 82.121094 C 30.855469 82.121094 31.203125 82.089844 31.550781 82.019531 C 31.898438 81.949219 32.234375 81.847656 32.5625 81.714844 C 32.886719 81.578125 33.199219 81.414062 33.492188 81.21875 C 33.785156 81.023438 34.058594 80.800781 34.308594 80.550781 C 34.5625 80.300781 34.785156 80.03125 34.980469 79.738281 C 35.179688 79.445312 35.347656 79.132812 35.484375 78.808594 C 35.621094 78.480469 35.722656 78.144531 35.792969 77.800781 C 35.867188 77.453125 35.902344 77.101562 35.902344 76.75 L 35.902344 52.367188 L 43.292969 59.753906 L 39.816406 63.230469 C 39.570312 63.480469 39.351562 63.753906 39.160156 64.050781 C 38.96875 64.34375 38.808594 64.65625 38.675781 64.980469 C 38.546875 65.308594 38.449219 65.644531 38.382812 65.988281 C 38.316406 66.332031 38.285156 66.683594 38.289062 67.035156 C 38.289062 67.386719 38.328125 67.734375 38.398438 68.078125 C 38.46875 68.421875 38.570312 68.757812 38.707031 69.082031 C 38.84375 69.40625 39.007812 69.714844 39.203125 70.003906 C 39.398438 70.296875 39.621094 70.566406 39.871094 70.816406 C 40.117188 71.066406 40.390625 71.285156 40.679688 71.484375 C 40.972656 71.679688 41.28125 71.84375 41.605469 71.980469 C 41.929688 72.117188 42.265625 72.21875 42.609375 72.289062 C 42.953125 72.359375 43.300781 72.394531 43.652344 72.398438 C 44.003906 72.402344 44.351562 72.371094 44.699219 72.304688 C 45.042969 72.238281 45.378906 72.140625 45.707031 72.007812 C 46.03125 71.878906 46.34375 71.71875 46.636719 71.523438 C 46.933594 71.332031 47.207031 71.113281 47.457031 70.871094 L 53.933594 64.394531 C 54.238281 64.089844 54.507812 63.757812 54.746094 63.398438 C 54.984375 63.039062 55.1875 62.660156 55.351562 62.265625 C 55.515625 61.867188 55.640625 61.457031 55.726562 61.03125 C 55.808594 60.609375 55.851562 60.183594 55.851562 59.753906 C 55.851562 59.320312 55.808594 58.894531 55.726562 58.472656 C 55.640625 58.050781 55.515625 57.640625 55.351562 57.242188 C 55.1875 56.84375 54.984375 56.464844 54.746094 56.105469 C 54.507812 55.746094 54.238281 55.414062 53.933594 55.109375 L 46.710938 47.886719 L 46.710938 31.082031 L 66.410156 31.082031 C 66.699219 31.082031 66.988281 31.054688 67.273438 31 C 67.558594 30.945312 67.839844 30.863281 68.109375 30.753906 C 68.378906 30.644531 68.632812 30.507812 68.875 30.347656 C 69.117188 30.1875 69.34375 30.003906 69.550781 29.796875 C 69.753906 29.59375 69.941406 29.371094 70.101562 29.128906 C 70.265625 28.886719 70.402344 28.632812 70.511719 28.363281 C 70.625 28.09375 70.710938 27.816406 70.765625 27.53125 C 70.824219 27.246094 70.851562 26.957031 70.851562 26.667969 C 70.851562 26.375 70.824219 26.085938 70.765625 25.800781 C 70.710938 25.515625 70.625 25.238281 70.511719 24.96875 C 70.402344 24.703125 70.265625 24.445312 70.101562 24.207031 C 69.941406 23.964844 69.753906 23.738281 69.550781 23.535156 C 69.34375 23.328125 69.117188 23.148438 68.875 22.984375 C 68.632812 22.824219 68.378906 22.691406 68.109375 22.578125 C 67.839844 22.46875 67.558594 22.386719 67.273438 22.332031 C 66.988281 22.277344 66.699219 22.25 66.410156 22.25 Z M 66.410156 22.25 " fill-opacity="1" fill-rule="nonzero"/></g><g clip-path="url(#5bdf5d774f)"><path fill="#012430" d="M 26.570312 8.957031 C 26.570312 8.371094 26.625 7.792969 26.738281 7.222656 C 26.855469 6.648438 27.023438 6.09375 27.246094 5.554688 C 27.46875 5.015625 27.742188 4.5 28.066406 4.015625 C 28.390625 3.53125 28.761719 3.082031 29.175781 2.667969 C 29.585938 2.253906 30.035156 1.886719 30.523438 1.5625 C 31.007812 1.238281 31.519531 0.964844 32.058594 0.742188 C 32.597656 0.515625 33.15625 0.347656 33.726562 0.234375 C 34.300781 0.121094 34.878906 0.0625 35.460938 0.0625 C 36.046875 0.0625 36.625 0.121094 37.199219 0.234375 C 37.769531 0.347656 38.328125 0.515625 38.867188 0.742188 C 39.40625 0.964844 39.917969 1.238281 40.402344 1.5625 C 40.890625 1.886719 41.339844 2.253906 41.75 2.667969 C 42.164062 3.082031 42.53125 3.53125 42.859375 4.015625 C 43.183594 4.5 43.457031 5.015625 43.679688 5.554688 C 43.902344 6.09375 44.070312 6.648438 44.1875 7.222656 C 44.300781 7.792969 44.355469 8.371094 44.355469 8.957031 C 44.355469 9.539062 44.300781 10.121094 44.1875 10.691406 C 44.070312 11.265625 43.902344 11.820312 43.679688 12.359375 C 43.457031 12.898438 43.183594 13.414062 42.859375 13.898438 C 42.53125 14.382812 42.164062 14.832031 41.75 15.246094 C 41.339844 15.660156 40.890625 16.027344 40.402344 16.351562 C 39.917969 16.675781 39.40625 16.949219 38.867188 17.171875 C 38.328125 17.398438 37.769531 17.566406 37.199219 17.679688 C 36.625 17.792969 36.046875 17.851562 35.460938 17.851562 C 34.878906 17.851562 34.300781 17.792969 33.726562 17.679688 C 33.15625 17.566406 32.597656 17.398438 32.058594 17.171875 C 31.519531 16.949219 31.007812 16.675781 30.523438 16.351562 C 30.035156 16.027344 29.585938 15.660156 29.175781 15.246094 C 28.761719 14.832031 28.390625 14.382812 28.066406 13.898438 C 27.742188 13.414062 27.46875 12.898438 27.246094 12.359375 C 27.023438 11.820312 26.855469 11.265625 26.738281 10.691406 C 26.625 10.121094 26.570312 9.539062 26.570312 8.957031 Z M 65.96875 22.25 L 4.957031 22.25 C 4.664062 22.25 4.378906 22.277344 4.09375 22.332031 C 3.804688 22.386719 3.527344 22.46875 3.257812 22.578125 C 2.988281 22.691406 2.734375 22.824219 2.492188 22.984375 C 2.25 23.148438 2.023438 23.328125 1.816406 23.535156 C 1.609375 23.742188 1.425781 23.964844 1.265625 24.207031 C 1.101562 24.445312 0.964844 24.703125 0.851562 24.972656 C 0.742188 25.238281 0.65625 25.515625 0.601562 25.800781 C 0.542969 26.085938 0.515625 26.375 0.515625 26.667969 C 0.515625 26.957031 0.542969 27.246094 0.601562 27.53125 C 0.65625 27.816406 0.742188 28.09375 0.851562 28.363281 C 0.964844 28.632812 1.101562 28.886719 1.265625 29.128906 C 1.425781 29.371094 1.609375 29.59375 1.816406 29.796875 C 2.023438 30.003906 2.25 30.1875 2.492188 30.347656 C 2.734375 30.507812 2.988281 30.644531 3.257812 30.753906 C 3.527344 30.863281 3.804688 30.945312 4.09375 31 C 4.378906 31.054688 4.664062 31.082031 4.957031 31.082031 L 24.65625 31.082031 L 24.65625 76.75 C 24.65625 77.101562 24.695312 77.453125 24.765625 77.800781 C 24.835938 78.144531 24.9375 78.480469 25.074219 78.808594 C 25.210938 79.132812 25.378906 79.445312 25.578125 79.738281 C 25.773438 80.03125 26 80.300781 26.25 80.550781 C 26.5 80.800781 26.773438 81.023438 27.066406 81.21875 C 27.359375 81.414062 27.671875 81.578125 28 81.714844 C 28.324219 81.847656 28.660156 81.949219 29.007812 82.019531 C 29.355469 82.089844 29.707031 82.121094 30.058594 82.121094 C 30.414062 82.121094 30.761719 82.089844 31.109375 82.019531 C 31.457031 81.949219 31.792969 81.847656 32.121094 81.714844 C 32.445312 81.578125 32.757812 81.414062 33.050781 81.21875 C 33.347656 81.023438 33.617188 80.800781 33.871094 80.550781 C 34.121094 80.300781 34.34375 80.03125 34.542969 79.738281 C 34.738281 79.445312 34.90625 79.132812 35.042969 78.808594 C 35.179688 78.480469 35.28125 78.144531 35.355469 77.800781 C 35.425781 77.453125 35.460938 77.101562 35.460938 76.75 L 35.460938 52.367188 L 42.851562 59.753906 L 39.375 63.230469 C 39.128906 63.480469 38.910156 63.753906 38.71875 64.050781 C 38.527344 64.34375 38.367188 64.65625 38.234375 64.980469 C 38.105469 65.308594 38.007812 65.644531 37.941406 65.988281 C 37.875 66.332031 37.84375 66.683594 37.847656 67.035156 C 37.847656 67.386719 37.886719 67.734375 37.957031 68.078125 C 38.027344 68.421875 38.128906 68.757812 38.265625 69.082031 C 38.402344 69.40625 38.566406 69.714844 38.761719 70.003906 C 38.957031 70.296875 39.179688 70.566406 39.429688 70.816406 C 39.679688 71.066406 39.949219 71.285156 40.238281 71.484375 C 40.53125 71.679688 40.839844 71.84375 41.164062 71.980469 C 41.488281 72.117188 41.824219 72.21875 42.167969 72.289062 C 42.511719 72.359375 42.859375 72.394531 43.210938 72.398438 C 43.5625 72.402344 43.910156 72.371094 44.257812 72.304688 C 44.601562 72.238281 44.9375 72.140625 45.265625 72.007812 C 45.589844 71.878906 45.902344 71.71875 46.195312 71.523438 C 46.492188 71.332031 46.765625 71.113281 47.015625 70.871094 L 53.492188 64.394531 C 53.796875 64.089844 54.066406 63.757812 54.304688 63.398438 C 54.546875 63.039062 54.746094 62.660156 54.910156 62.265625 C 55.074219 61.867188 55.199219 61.457031 55.285156 61.03125 C 55.367188 60.609375 55.410156 60.183594 55.410156 59.753906 C 55.410156 59.320312 55.367188 58.894531 55.285156 58.472656 C 55.199219 58.050781 55.074219 57.640625 54.910156 57.242188 C 54.746094 56.84375 54.546875 56.464844 54.304688 56.105469 C 54.066406 55.746094 53.796875 55.414062 53.492188 55.109375 L 46.269531 47.886719 L 46.269531 31.082031 L 65.96875 31.082031 C 66.257812 31.082031 66.546875 31.054688 66.832031 31 C 67.121094 30.945312 67.398438 30.863281 67.667969 30.753906 C 67.9375 30.644531 68.191406 30.507812 68.433594 30.347656 C 68.675781 30.1875 68.902344 30.003906 69.109375 29.796875 C 69.316406 29.59375 69.5 29.371094 69.660156 29.128906 C 69.824219 28.886719 69.960938 28.632812 70.074219 28.363281 C 70.183594 28.09375 70.269531 27.816406 70.324219 27.53125 C 70.382812 27.246094 70.410156 26.957031 70.410156 26.667969 C 70.410156 26.375 70.382812 26.085938 70.324219 25.800781 C 70.269531 25.515625 70.183594 25.238281 70.074219 24.96875 C 69.960938 24.703125 69.824219 24.445312 69.660156 24.207031 C 69.5 23.964844 69.316406 23.738281 69.109375 23.535156 C 68.902344 23.328125 68.675781 23.148438 68.433594 22.984375 C 68.191406 22.824219 67.9375 22.691406 67.667969 22.578125 C 67.398438 22.46875 67.121094 22.386719 66.832031 22.332031 C 66.546875 22.277344 66.257812 22.25 65.96875 22.25 Z M 65.96875 22.25 " fill-opacity="1" fill-rule="nonzero"/></g></svg>

<svg xmlns="http://www.w3.org/2000/svg" width="96" height="111" viewBox="0 0 72 83.25"><defs><clipPath id="a"><path d="M.762 0H71v82.508H.762Zm0 0"/></clipPath><clipPath id="b"><path d="M.32 0h70.614v82.508H.32Zm0 0"/></clipPath></defs><g clip-path="url(#a)"><path fill="#012430" d="M27.012 8.957q-.002-.879.168-1.734a9 9 0 0 1 .508-1.668 8.8 8.8 0 0 1 1.925-2.887A8.9 8.9 0 0 1 39.31.742q.808.334 1.535.82.732.486 1.347 1.106a8.9 8.9 0 0 1 1.93 9.691 8.9 8.9 0 0 1-3.277 3.992 8.8 8.8 0 0 1-1.535.82 8.7 8.7 0 0 1-1.668.509 9 9 0 0 1-1.739.172q-.873-.001-1.734-.172a8.953 8.953 0 0 1-3.207-1.328 8.9 8.9 0 0 1-2.453-2.454c-.324-.484-.598-1-.82-1.539a9 9 0 0 1-.508-1.668 9 9 0 0 1-.168-1.734M66.41 22.25H5.398c-.293 0-.578.027-.867.082a4.4 4.4 0 0 0-.832.246q-.403.168-.765.406a4.4 4.4 0 0 0-1.227 1.223c-.164.238-.3.496-.414.766q-.165.399-.254.828a4.6 4.6 0 0 0 0 1.73q.09.428.254.832.169.404.414.766.24.363.55.668c.208.207.43.39.677.55A4.4 4.4 0 0 0 4.53 31c.29.055.574.082.867.082h19.7V76.75q-.001.529.109 1.05.104.517.309 1.009.204.487.504.93.292.438.671.812a5.35 5.35 0 0 0 1.747 1.164q.491.199 1.011.305.523.103 1.051.101.531.002 1.05-.101.521-.105 1.012-.305.489-.204.93-.496.44-.293.817-.668.38-.374.671-.813a5.35 5.35 0 0 0 .922-2.988V52.367l7.391 7.387-3.477 3.476q-.368.376-.656.82a5.5 5.5 0 0 0-.484.93 5.7 5.7 0 0 0-.293 1.008 5.2 5.2 0 0 0-.094 1.047c0 .352.04.7.11 1.043a5.3 5.3 0 0 0 .804 1.926q.293.438.668.812c.246.25.52.47.809.668q.44.293.925.496.488.204 1.004.31.516.104 1.043.108.527.006 1.047-.093a5.4 5.4 0 0 0 1.938-.782q.445-.288.82-.652l6.477-6.476q.456-.457.812-.997a6.7 6.7 0 0 0 .606-1.132q.246-.597.375-1.235.124-.632.125-1.277-.001-.65-.125-1.281a6.608 6.608 0 0 0-1.793-3.363l-7.223-7.223V31.082h19.7a4.6 4.6 0 0 0 1.698-.328q.404-.166.766-.406.364-.24.676-.551c.203-.203.39-.426.55-.668q.247-.362.41-.766.172-.405.255-.832.087-.429.086-.863 0-.44-.086-.867a4 4 0 0 0-.254-.832 4 4 0 0 0-.41-.762 4.35 4.35 0 0 0-1.227-1.223 4.6 4.6 0 0 0-.766-.406q-.406-.164-.836-.246a4.6 4.6 0 0 0-.863-.082m0 0"/></g><g clip-path="url(#b)"><path fill="#012430" d="M26.57 8.957q0-.879.168-1.734a9 9 0 0 1 .508-1.668 8.8 8.8 0 0 1 1.93-2.887q.616-.62 1.347-1.106a8.8 8.8 0 0 1 1.536-.82 8.7 8.7 0 0 1 1.668-.508A9 9 0 0 1 35.46.063q.878 0 1.738.171c.57.114 1.13.282 1.668.508q.81.334 1.535.82.733.486 1.348 1.106c.414.414.781.863 1.11 1.348.324.484.597 1 .82 1.539q.332.807.508 1.668a9 9 0 0 1 .167 1.734c0 .582-.054 1.164-.167 1.734a9 9 0 0 1-.508 1.668 8.8 8.8 0 0 1-1.93 2.887q-.615.62-1.348 1.106a8.8 8.8 0 0 1-1.535.82 8.7 8.7 0 0 1-1.668.508 9 9 0 0 1-1.738.172q-.873-.001-1.734-.172a8.7 8.7 0 0 1-1.668-.508 8.8 8.8 0 0 1-1.536-.82 8.5 8.5 0 0 1-1.347-1.106 8.811 8.811 0 0 1-1.93-2.887 9 9 0 0 1-.508-1.668 9 9 0 0 1-.168-1.734M65.97 22.25H4.957a4.6 4.6 0 0 0-1.7.328q-.403.168-.765.406a4.309 4.309 0 0 0-1.227 1.223 4.3 4.3 0 0 0-.663 1.594 4.3 4.3 0 0 0-.086.867q-.001.434.086.863c.054.285.14.563.25.832q.169.404.414.766.24.363.55.668.312.31.676.55A4.4 4.4 0 0 0 4.094 31q.426.082.863.082h19.7V76.75q.001.529.109 1.05.105.517.308 1.009.205.487.504.93c.195.292.422.562.672.812A5.35 5.35 0 0 0 28 81.715q.486.199 1.008.305.522.103 1.05.101.532.002 1.051-.101.521-.105 1.012-.305c.324-.137.637-.3.93-.496a5.38 5.38 0 0 0 1.992-2.41 5.297 5.297 0 0 0 .418-2.059V52.367l7.39 7.387-3.476 3.476q-.37.376-.656.82a5.5 5.5 0 0 0-.485.93 5.7 5.7 0 0 0-.293 1.008 5.2 5.2 0 0 0-.093 1.047c0 .352.039.7.109 1.043a5.3 5.3 0 0 0 .805 1.926q.293.438.668.812c.25.25.52.47.808.668q.44.293.926.496t1.004.31q.516.104 1.043.108.527.006 1.047-.093a5.4 5.4 0 0 0 1.937-.782q.445-.288.82-.652l6.477-6.476q.456-.457.813-.997a6.5 6.5 0 0 0 .605-1.132q.247-.597.375-1.235.124-.632.125-1.277-.001-.65-.125-1.281a7 7 0 0 0-.375-1.23 6.4 6.4 0 0 0-.605-1.138 6.4 6.4 0 0 0-.813-.996l-7.222-7.222V31.082h19.699a4.6 4.6 0 0 0 1.699-.328q.403-.166.766-.406.364-.24.675-.551.31-.305.551-.668.244-.362.414-.766.167-.405.25-.832.087-.429.086-.863.001-.44-.086-.867a4.4 4.4 0 0 0-.25-.832 4.4 4.4 0 0 0-.414-.762 4 4 0 0 0-.55-.672 4.6 4.6 0 0 0-.676-.55 4.377 4.377 0 0 0-1.602-.652 4.6 4.6 0 0 0-.863-.083m0 0"/></g></svg>
